!!!COM: Martin, Frank
!!!OTL: [T554_Mai-w20p6m95-110]
**kern	**dynam	**kern	**kern	**dynam	**kern	**kern	**kern	**kern	**kern	**kern	**kern	**dynam	**kern
*part8	*part8	*part7	*part6	*part6	*part5	*part5	*part4	*part3	*part3	*part2	*part2	*part2	*part1
*staff11	*	*staff10	*staff9	*	*staff8	*staff7	*staff6	*staff5	*staff4	*staff3	*staff2	*	*staff1
*I"Contrabass Solo	*	*I"Violoncello Solo	*I"Viola	*	*I"Violin II	*	*I"Violin I	*I"Violin I 2 Soli	*	*I"Piano	*	*	*I"Flute
*I'Cb. Solo	*	*I'Vc.	*I'Vla.	*	*I'Vln. II	*	*I'Vln. I rip.	*I'Vln. I 2 Soli	*	*I'Pno.	*	*	*I'Fl.
!!pagebreak:original
*clefF4	*	*clefF4	*clefC3	*	*clefG2	*clefG2	*clefG2	*clefG2	*clefG2	*clefF4	*clefF4	*	*clefG2
*Trd0c0	*	*	*	*	*	*	*	*	*	*	*	*	*
*k[]	*	*k[]	*k[]	*	*k[]	*k[]	*k[]	*k[]	*k[]	*k[]	*k[]	*	*k[]
*C:	*	*C:	*C:	*	*C:	*C:	*C:	*C:	*C:	*C:	*C:	*	*C:
*M4/4	*	*M4/4	*M4/4	*	*M4/4	*M4/4	*M4/4	*M4/4	*M4/4	*M4/4	*M4/4	*	*M4/4
!	!	!	!	!	!	!	!	!	!LO:TX:t=[quarter]=192	!	!	!	!
!	!	!	!	!	!	!	!	!	!LO:TX:b:t=[pp]	!	!	!	!LO:TX:t=[quarter]=192
!	!	!	!LO:TX:b:t=vibr.	!	!	!	!	!	!LO:TX:b:i:t=molto legg.	!	!	!	!LO:TX:b:t=[mp]
!	!	!LO:TX:b:t=[pp]	!LO:TX:a:t=tutti unis.	!	!	!	!	!	!LO:TX:b:t=[pp]	!	!LO:TX:b:i:t=lié sans pédale	!	!LO:TX:b:t=
4%3r	.	[2.FF#X	([2.fn	pp	4%3r	4%3r)	4%3r	12G#XL	(12eL	[2.FFF#X	(4G#X 4e	pp	8%3r
.	.	.	.	.	.	.	.	12B	12d	.	.	.	.
.	.	.	.	.	.	.	.	12G#J	12eJ)	.	.	.	.
.	.	.	.	.	.	.	.	8B'	8d'	.	4B 4d	.	.
!	!	!	!	!	!	!	!	!	!	!	!	!	!LO:TX:b:i:t=dolce cantabile
*	*	*	*	*	*	*	*	*	*	*	*	*	*Xtuplet
.	.	.	.	.	.	.	.	8r	8r	.	.	.	([8%3b-X~
.	.	.	.	.	.	.	.	12G#L	(12eL	.	4G# 4e	.	.
.	.	.	.	.	.	.	.	12B	12d	.	.	.	.
.	.	.	.	.	.	.	.	12G#J	12eJ)	.	.	.	.
=1	=1	=1	=1	=1	=1	=1	=1	=1	=1	=1	=1	=1	=1
4%3r	.	2.FF#_	2.f_	.	4%3r	4%3r	4%3r	12BL	(12dL	2.FFF#]	4B 4d	.	8%3b-]
.	.	.	.	.	.	.	.	12G#X	12e	.	.	.	.
.	.	.	.	.	.	.	.	12BJ	12dJ)	.	.	.	.
.	.	.	.	.	.	.	.	8G#'	8e'	.	4G#X 4e	.	.
.	.	.	.	.	.	.	.	8r	8r	.	.	.	8%3b-X~
.	.	.	.	.	.	.	.	12BL	(12dL	.	4B 4d	.	.
.	.	.	.	.	.	.	.	12G#	12e	.	.	.	.
.	.	.	.	.	.	.	.	12BJ	12dJ)	.	.	.	.
=2	=2	=2	=2	=2	=2	=2	=2	=2	=2	=2	=2	=2	=2
4%3r	.	2.FF#_	2.f]	.	4%3r	4%3r	4%3r	8G#X'	8e'	2.FF#X	4G#X 4e	.	8%3dd-X~
.	.	.	.	.	.	.	.	8r	8r	.	.	.	.
.	.	.	.	.	.	.	.	12BL	(12dL	.	4B 4d	.	.
.	.	.	.	.	.	.	.	12G#	12e	.	.	.	.
.	.	.	.	.	.	.	.	.	.	.	.	.	8%3b-X~
.	.	.	.	.	.	.	.	12BJ	12dJ)	.	.	.	.
.	.	.	.	.	.	.	.	12G#L	(12eL	.	4G# 4e	.	.
.	.	.	.	.	.	.	.	12B	12d	.	.	.	.
.	.	.	.	.	.	.	.	12G#J	12eJ)	.	.	.	.
=3	=3	=3	=3	=3	=3	=3	=3	=3	=3	=3	=3	=3	=3
4%3r	.	2.FF#_	[2.e	.	4%3r	4%3r	4%3r	12GnL	(12dL	[2.FFF#X	4Gn 4d	.	[4%3an~
.	.	.	.	.	.	.	.	12B-X	12c#X	.	.	.	.
.	.	.	.	.	.	.	.	12GJ	12dJ)	.	.	.	.
.	.	.	.	.	.	.	.	8B-'	8c#'	.	4B-X 4c#X	.	.
.	.	.	.	.	.	.	.	8r	8r	.	.	.	.
.	.	.	.	.	.	.	.	12GL	(12dL	.	4G 4d	.	.
.	.	.	.	.	.	.	.	12B-	12c#	.	.	.	.
.	.	.	.	.	.	.	.	12GJ	12dJ)	.	.	.	.
=4	=4	=4	=4	=4	=4	=4	=4	=4	=4	=4	=4	=4	=4
4%3r	.	2.FF#_	2.e_	.	4%3r	4%3r	4%3r	12B-XL	(12c#XL	2.FFF#]	4B-X 4c#X	.	4%3a])
.	.	.	.	.	.	.	.	12G	12d	.	.	.	.
.	.	.	.	.	.	.	.	12B-J	12c#J)	.	.	.	.
.	.	.	.	.	.	.	.	8G'	8d'	.	4G 4d	.	.
.	.	.	.	.	.	.	.	8r	8r	.	.	.	.
.	.	.	.	.	.	.	.	12B-L	(12c#L	.	4B- 4c#	.	.
.	.	.	.	.	.	.	.	12G	12d	.	.	.	.
.	.	.	.	.	.	.	.	12B-J	12c#J)	.	.	.	.
!!pagebreak:original
=5	=5	=5	=5	=5	=5	=5	=5	=5	=5	=5	=5	=5	=5
4%3r	.	2.FF#X_	2.e_	.	4%3r	4%3r	4%3r	8G'	8d'	2.FF#X	4G 4d	.	8%3r
.	.	.	.	.	.	.	.	8r	8r	.	.	.	.
.	.	.	.	.	.	.	.	12B-XL	(12c#XL	.	4B-X 4c#X	.	.
.	.	.	.	.	.	.	.	12G	12d	.	.	.	.
.	.	.	.	.	.	.	.	.	.	.	.	.	([8%3f#X
.	.	.	.	.	.	.	.	12B-J	12c#J)	.	.	.	.
.	.	.	.	.	.	.	.	12GL	(12dL	.	4G 4d	.	.
.	.	.	.	.	.	.	.	12B-	12c#	.	.	.	.
.	.	.	.	.	.	.	.	12GJ	12dJ)	.	.	.	.
=6	=6	=6	=6	=6	=6	=6	=6	=6	=6	=6	=6	=6	=6
!	!	!	!	!	!	!	!	!	!LO:TX:a:t=9	!	!	!	!LO:TX:a:t=9
4%3r	.	2.FF#_	2.e])	.	4%3r	4%3r	4%3r	12B-XL	(12c#XL	[2.FFF#X	4B-X 4c#X	.	8%3.f#]
.	.	.	.	.	.	.	.	12G	12d	.	.	.	.
.	.	.	.	.	.	.	.	12B-J	12c#J)	.	.	.	.
.	.	.	.	.	.	.	.	8G'	8d'	.	4G 4d	.	.
.	.	.	.	.	.	.	.	8r	8r	.	.	.	.
.	.	.	.	.	.	.	.	12B-L	(12c#L	.	4B- 4c#	.	.
.	.	.	.	.	.	.	.	.	.	.	.	.	16%3g)
.	.	.	.	.	.	.	.	12G	12d	.	.	.	.
.	.	.	.	.	.	.	.	12B-J	12c#J)	.	.	.	.
=7	=7	=7	=7	=7	=7	=7	=7	=7	=7	=7	=7	=7	=7
4%3r	.	2.FF#_	(2.f	.	4%3r	4%3r	4%3r	12G#XL	(12eL	2.FFF#]	4G#X 4e	.	(16%3aL
.	.	.	.	.	.	.	.	12Bn	12d	.	.	.	.
.	.	.	.	.	.	.	.	12G#J	12eJ)	.	.	.	.
.	.	.	.	.	.	.	.	.	.	.	.	.	16%3b
.	.	.	.	.	.	.	.	8B'	8d'	.	4Bn 4d	.	.
.	.	.	.	.	.	.	.	8r	8r	.	.	.	16%3cc
.	.	.	.	.	.	.	.	12G#L	(12eL	.	4G# 4e	.	.
.	.	.	.	.	.	.	.	.	.	.	.	.	16%3ddJ)
.	.	.	.	.	.	.	.	12B	12d	.	.	.	.
.	.	.	.	.	.	.	.	12G#J	12eJ)	.	.	.	.
*	*	*	*	*	*	*	*	*	*	*	*clefG2	*	*
=8	=8	=8	=8	=8	=8	=8	=8	=8	=8	=8	=8	=8	=8
4%3r	.	2.FF#_	[2.g	.	4%3r	4%3r	4%3r	8B-X'	8f'	2.FF#X	4B-X 4f	.	(8%3ee-X~
.	.	.	.	.	.	.	.	8r	8r	.	.	.	.
.	.	.	.	.	.	.	.	12d-XL	(12eL	.	4d-X 4e	.	.
.	.	.	.	.	.	.	.	12B-	12f	.	.	.	.
.	.	.	.	.	.	.	.	.	.	.	.	.	8%3dd-X~
.	.	.	.	.	.	.	.	12d-J	12eJ)	.	.	.	.
.	.	.	.	.	.	.	.	12B-L	(12fL	.	4B- 4f	.	.
.	.	.	.	.	.	.	.	12d-	12e	.	.	.	.
.	.	.	.	.	.	.	.	12B-J	12fJ)	.	.	.	.
=9	=9	=9	=9	=9	=9	=9	=9	=9	=9	=9	=9	=9	=9
4%3r	.	2.FF#_	2.g]	.	4%3r	4%3r	4%3r	12d-XL	(12eL	[2.FFF#X	4d-X 4e	.	8%3cc~
.	.	.	.	.	.	.	.	12B-X	12f	.	.	.	.
.	.	.	.	.	.	.	.	12d-J	12eJ)	.	.	.	.
.	.	.	.	.	.	.	.	8B-'	8f'	.	4B-X 4f	.	.
.	.	.	.	.	.	.	.	8r	8r	.	.	.	8%3b-X~)
.	.	.	.	.	.	.	.	12d-L	(12eL	.	4d- 4e	.	.
.	.	.	.	.	.	.	.	12B-	12f	.	.	.	.
.	.	.	.	.	.	.	.	12d-J	12eJ)	.	.	.	.
!!linebreak:original
=10	=10	=10	=10	=10	=10	=10	=10	=10	=10	=10	=10	=10	=10
4%3r	.	2.FF#X_	[2.a-X	.	4%3r	4%3r	4%3r	12BnL	(12gL	2.FFF#]	4Bn 4g	.	(8%3een~
.	.	.	.	.	.	.	.	12dn	12f	.	.	.	.
.	.	.	.	.	.	.	.	12BJ	12gJ)	.	.	.	.
.	.	.	.	.	.	.	.	8d'	8f'	.	4d 4f	.	.
.	.	.	.	.	.	.	.	8r	8r	.	.	.	8%3ddn~
.	.	.	.	.	.	.	.	12BL	(12gL	.	4B 4g	.	.
.	.	.	.	.	.	.	.	12d	12f	.	.	.	.
.	.	.	.	.	.	.	.	12BJ	12gJ)	.	.	.	.
=11	=11	=11	=11	=11	=11	=11	=11	=11	=11	=11	=11	=11	=11
4%3r	.	2.FF#]	2.a-])	.	4%3r	4%3r	4%3r	8d'	8f'	2.FF#X	4d 4f	.	8%3cc#X~
.	.	.	.	.	.	.	.	8r	8r	.	.	.	.
.	.	.	.	.	.	.	.	12BL	(12gL	.	4B 4g	.	.
.	.	.	.	.	.	.	.	12d	12f	.	.	.	.
.	.	.	.	.	.	.	.	.	.	.	.	.	8%3bn~)
.	.	.	.	.	.	.	.	12BJ	12gJ)	.	.	.	.
.	.	.	.	.	.	.	.	12dL	(12fL	.	4d 4f	.	.
.	.	.	.	.	.	.	.	12B	12g	.	.	.	.
.	.	.	.	.	.	.	.	12dJ	12fJ)	.	.	.	.
=12	=12	=12	=12	=12	=12	=12	=12	=12	=12	=12	=12	=12	=12
!LO:TX:b:t=vibr.	!	!	!	!	!	!	!	!	!	!	!	!	!
!LO:TX:a:t=pizz.	!	!	!	!	!	!	!	!	!	!	!	!	!
2BB	p	[2.BBn	[2.an	.	4%3r	4%3r	4%3r	12B#XL	(12g#XL	[2.BBBn	4B#X 4g#X	.	(16%3ff~L
.	.	.	.	.	.	.	.	12d#X	12f#X	.	.	.	.
.	.	.	.	.	.	.	.	12B#J	12g#J)	.	.	.	.
.	.	.	.	.	.	.	.	.	.	.	.	.	16%3dd~
.	.	.	.	.	.	.	.	8d#'	8f#'	.	4d#X 4f#X	.	.
.	.	.	.	.	.	.	.	8r	8r	.	.	.	16%3ff~
4r	.	.	.	.	.	.	.	12B#L	(12g#L	.	4B# 4g#	.	.
.	.	.	.	.	.	.	.	.	.	.	.	.	[16%3dd~J
.	.	.	.	.	.	.	.	12d#	12f#	.	.	.	.
.	.	.	.	.	.	.	.	12B#J	12g#J)	.	.	.	.
=13	=13	=13	=13	=13	=13	=13	=13	=13	=13	=13	=13	=13	=13
4%3r	.	2.BB_	2.a_	.	4%3r	4%3r	4%3r	12d#XL	(12f#XL	2.BBB_	4d#X 4f#X	.	4%3dd_
.	.	.	.	.	.	.	.	12B#X	12g#X	.	.	.	.
.	.	.	.	.	.	.	.	12d#J	12f#J)	.	.	.	.
.	.	.	.	.	.	.	.	8B#'	8g#'	.	4B#X 4g#X	.	.
.	.	.	.	.	.	.	.	8r	8r	.	.	.	.
.	.	.	.	.	.	.	.	12d#L	(12f#L	.	4d# 4f#	.	.
.	.	.	.	.	.	.	.	12B#	12g#	.	.	.	.
.	.	.	.	.	.	.	.	12d#J	12f#J)	.	.	.	.
=14	=14	=14	=14	=14	=14	=14	=14	=14	=14	=14	=14	=14	=14
4%3r	.	2BB]	2.a_	.	4%3r	4%3r	4%3r	8B#X'	8g#X'	2BBB]	4B#X 4g#X	.	4%3dd])
.	.	.	.	.	.	.	.	8r	8r	.	.	.	.
.	.	.	.	.	.	.	.	12d#XL	(12f#XL	.	4d#X 4f#X	.	.
.	.	.	.	.	.	.	.	12B#	12g#	.	.	.	.
.	.	.	.	.	.	.	.	12d#J	12f#J)	.	.	.	.
.	.	4r	.	.	.	.	.	12B#L	(12g#L	4r	4B# 4g#)	.	.
.	.	.	.	.	.	.	.	12d#	12f#	.	.	.	.
.	.	.	.	.	.	.	.	12B#J	12g#J)	.	.	.	.
!!pagebreak:original
=15	=15	=15	=15	=15	=15	=15	=15	=15	=15	=15	=15	=15	=15
!	!	!LO:TX:a:t=pizz.	!	!	!	!	!	!	!	!	!	!	!
!LO:TX:a:t=arco	!	!LO:TX:b:i:t=dolce. vibr.	!	!	!	!LO:TX:b:i:t=dolce. vibr.	!	!	!	!	!	!	!
!LO:TX:b:i:t=dolce cantabile	!	!LO:TX:a:t=tutti	!	!	!	!LO:TX:a:t=pizz.	!LO:TX:b:i:t=dolciss. vibr.	!	!	!	!LO:TX:b:i:t=legg. senza ped.	!	!
[2.FFn	.	2FFn	8a]	.	4r	2d#X 2f#X	([2.a	8d#X'	8f#X'	4%3ryy	((12f#XL	.	8%3r
.	.	.	.	.	.	.	.	.	.	.	12d#X	.	.
.	.	.	8r	.	.	.	.	8r	8r	.	.	.	.
.	.	.	.	.	.	.	.	.	.	.	12f#J)	.	.
!	!	!	!	!	!	!LO:TX:b:i:t=dolce. vibr.	!	!	!	!	!	!	!
!	!	!	!	!	!	!LO:TX:a:t=pizz.	!	!	!	!	!LO:TX:a:t=M.D.	!	!
.	.	.	4r	.	2B#X 2g#X	.	.	4r	4r	.	8B#X 8g#X)	pp	.
.	.	.	.	.	.	.	.	.	.	.	8r	.	[8%3ddd~
.	.	4r	4r	.	.	[4d# [4f#	.	4r	4r	.	((12f#L	.	.
.	.	.	.	.	.	.	.	.	.	.	12d#	.	.
.	.	.	.	.	.	.	.	.	.	.	12f#J))	.	.
=	=	=	=	=	=	=	=	=	=	=	=	=	=
*-	*-	*-	*-	*-	*-	*-	*-	*-	*-	*-	*-	*-	*-
!!!system-decoration: s1[({(s2,s3)})][([([({(s4,s5)})]s6)][({(s7,s8)})]s9,s10,s11)]
